X:1
T:Intermezzo
T:Intermezzo
T:from Mikrokosmos 4
T:Bartók Béla, Sz. 107
C:Bartók Béla, Sz. 107
%%score { ( 1 3 4 ) | ( 2 5 ) }
L:1/8
Q:1/4=108
M:3/4
K:A
V:1 treble nm="Piano" snm="Pno."
V:3 treble 
V:4 treble 
V:2 bass 
V:5 bass 
V:1
"^Molto tranquillo,-116"!mf! z6 |[M:5/4] C8- C2- |[M:3/4] C6 |"^espr." (C2 ^D2 E2- | %4
[M:5/4] E2 ^D2 C2 =B,2 D2 |[M:3/4] F2 !tenuto!C4 |[I:staff +1] C6) |[I:staff -1] g6 | d6- | d6 | %10
 A6- | A6 |!>(! z6!>)! |!p! (F2 G2 A2 | G2 F2 E2 | G6 | F6- | F6) | z2"^espr." (^F2 ^G2 | A6- | %20
 A6-) | A6 | z2!mp! (d2 e2 | =f6 | =c2 _B4) | z2!mf!!<(! _b2 =c'2 | =d'6!<)! |!f![Q:1/4=108] =d'6 | %28
 !fermata!z2!p![Q:1/4=112] (=c2 =G2 | A2 D4 | E6- | E2) (D2 =G2 |!>(! E6- | E4!>)!!pp! F2) | z6 | %35
 z2 z2!p!!<(! =C2!<)! |!mp! (F6- | F2 G2 A2 | G2 F2 E2 | G2 F4- | F2) (G2 A2 | G2 F2 E2 | G2 F4- | %43
 F2) (E2 A2 | G2 B2 A2 | G2 E2 F2) |!<(! z2 (A2 G2 | F2 E2 A2 | !>!B2!<)! !tenuto!F4 | %49
 !tenuto!F6- | F4 G2) | (!tenuto!A2 E4- |!>(! E2)[Q:1/4=112] (^E2[Q:1/4=111]"^.6" G2 | %53
[Q:1/4=109]"^.8" ^E2[Q:1/4=106]"^.2" =E2[Q:1/4=100]"^.3" D2 |[Q:1/4=92] !fermata!C6)!>)! |] %55
V:2
"_espr." (F,2 G,2 A,2- |[M:5/4] A,2 G,2 F,2 E,2 G,2 |[M:3/4] =B,2 !tenuto!F,4 | F,6) | %4
[M:5/4] [=F,^A,]8- [F,A,]2 |[M:3/4] [E,B,]6- | [E,B,]6 | B,6- | B,6 | =F,6- | F,6 | C,6 | %12
 =B,,2 !tenuto!F,,4 | F,,6 | z2 B,2 C2 | D6- | D6- | D2"_espr." (D2 E2 | =F6- | !courtesy!=F6 | %20
 =C2 B,4) |!mp! =C6- | C6- | C6 |!mf! A,6- | A,6- | A,6 |[K:treble] A6 | z6 |[K:bass] z2 (F,2 C,2 | %30
 ^D,2 G,,4 | ^A,,6) | (_D,2 _A,,2 _B,,2 | =C,6 | =G,,2) z2 z2 | z6 | z2 z2!<(! =F,2-!<)! | %37
!mp! ([F,^A,]6- | [F,A,]6- | [F,A,]6 | [E,B,]4) z2 | ([_E,^G,]6 | [D,A,]4) z2 | ([=C,^E,]6 | %44
 [B,,F,]4) z2 | ([_B,,^D,]6 | [A,,E,]4) z2 | [_B,,=C,]6 | [=G,,^C,]4 z2 | !>!E2 (!tenuto!B,4 | %50
 !tenuto!B,6- | B,4 C2) | (!tenuto!D2 A,4) | z2 (^^F,,2 G,,2 | !fermata!C,6) |] %55
V:3
 x6 |[M:5/4] ^B,8- B,2- |[M:3/4] B,6 | ^B,6 |[M:5/4] x10 |[M:3/4] x6 | (=g2 f2 e2 | d2 c4) | %8
 (d2 =c2 _B2 | A2 =G4) | (A2 =G2 F2 | E2 ^D2 E2) | x6 | x6 | x6 | x6 | x6 | x6 | x2 F4- | %19
 !courtesy!^F6- | F2 (=G2 =F2 | E2 D4) | x6 | =f2 _e2 d2 | x6 | x6 | d'2 =c'2!ped! _b2 | =c'2 =g4 | %28
 x2!ped-up! x4 | x6 | x6 | x6 | x6 | x6 | x6 | x6 | x6 | x6 | x6 | x6 | x6 | x6 | x6 | x6 | x6 | %45
 x6 | x6 | x6 |!ped! x6 | x6 | x4!ped-up! x2 | x6 | x6 | x6 | x6 |] %55
V:4
 x6 |[M:5/4] x10 |[M:3/4] x6 | x6 |[M:5/4] x10 |[M:3/4] x6 | =g6- | x6 | x6 | x6 | x6 | x6 | x6 | %13
 x6 | x6 | x6 | x6 | x6 | x6 | x6 | x6 | x6 | x6 | x6 | x6 | x6 | x6 | x6 | x6 | x6 | x6 | x6 | %32
 x6 | x6 | x6 | x6 | x6 | x6 | x6 | x6 | x6 | x6 | x6 | x6 | x6 | x6 | x6 | x6 | x6 | x6 | x6 | %51
 x6 | x6 | x6 | x6 |] %55
V:5
 x6 |[M:5/4] x10 |[M:3/4] x6 | x6 |[M:5/4] x10 |[M:3/4] x6 | x6 | (B,2 A,2 =G,2 | F,2 E,4) | %9
 (=F,2 _E,2 _D,2 | =C,2 _B,,4) | ^C,2 ^B,,2 =G,,2 | x6 | x6 | x6 | D2 A,4- | A,6- | A,2 x4 | =F6- | %19
 F2 E2 D2 | x6 | (=C2 _B,2 _A,2 | =G,6 | ^F,6) | (A,2 =G,2 F,2 | E,6 | ^D,6) |[K:treble] ^D6 | x6 | %29
[K:bass] x6 | x6 | x6 | x6 | x6 | x6 | x6 | x6 | x6 | x6 | x6 | x6 | x6 | x6 | x6 | x6 | x6 | x6 | %47
 x6 | x6 | x6 | x6 | x6 | x6 | x6 | x6 |] %55

